!!!OTL: 55. Wiegenlied.
!!!ARE: Europa, Mitteleuropa, Deutschland, Schlesien
!!!SCT: K0055A
!!!YEM: Copyright 1995, estate of Helmut Schaffrath.
**kern	**text
*clefG2	*
*M3/4	*
*k[f#]	*
*G:	*
=1	=1
!LO:TX:a:t=Lieblich	!
{4.dd	Sau-
8cc	-ſe
8b	lie-
8a	-be
=2	=2
4g	Nin-
4g}	-ne,
{8gL	was
8bJ	.
=3	=3
4dd	ra-
4dd	-ſchelt
4ee	im
=4	=4
2dd}	Stroh?
{8gL	Das
8bJ	.
=5	=5
4.dd	ſind
8cc	die
8b	lie-
8a	-ben
=6	=6
4g	Gän-
4g}	-ſel,
{8gL	die
8bJ	.
=7	=7
4dd	ha-
4dd	-ben
4ee	kein
=8	=8
2dd}	Schuh.
{4b	Der
=9	=9
4.a	Schu-
8a	-ſter
4a	hat
=10	=10
4a	Lei-
4b}	-ſten,
{4cc	kein
=11	=11
4.dd	Le-
8cc	-der
4b	da-
=12	=12
2a}	-ʒu;
{8gL	da
8bJ	.
=13	=13
4.dd	müß'n
8cc	die
8b	lie-
8a	-ben
=14	=14
4g	Gän-
4g}	-ſel
{4g	wohl
=15	=15
4a	gehn
4b	oh-
4a	-ne
=16	=16
!LO:N:vis=2	!
2g.}	Schuh.
==	==
!!!AGN: Kinder -, Wiegen -, Schlaf - Lied
!!!ONB: ESAC (Essen Associative Code) Database: KINDER
!!!AMT: simple triple
!!!AIN: vox
!!!EED: Helmut Schaffrath
!!!EEV: 1.0
!!Mel. aus Schlesien.
!!!GTL: I. Wiegenlieder.
!!@@COMMENT:"Aus Warmbrunn bei Breslau: Hoffmann, Schles. Volkslieder Nr. 276. Dieselbe Mel. auch bei Pocci und Raumer."
!!@@END:
!!!URL-scan: https://archive.org/details/DeutschesKinderliedUndKinderspiel/page/12/mode/1up
!!!ENC: Anna Maria Matuszewska
!!!EEV: 2024/29/08
*-	*-
